X:81
T:Huntsman’s Chorus. RHu.081
S:R.Hughes MS,1823,Whitchurch,Shrops.
N:Written across consecutive pages of the MS.
A:Whitchurch , Shropshire
Z:Neil Brookes 2006
M:2/4
L:1/8
Q:1/4=100
R:Air
K:D
A|d2d/e/f/g/|a2ff|ea ea|f/g/f/e/ dA|!
d2d/e/f/g/|a2ff|f/e/[f/d/][a/e/] [c’f][be]|[a2d2]z::!
g2gg|e2ee|ff/f/ ff|dd/d/ dd|!
gg/g/ gg|e2HzA|f2ff|g2ff|!
e2 f/e/d/e/|f2dA|f2ff|agff|
f/e/d/e/ fe|d2zA/A/|AA/A/ AA/A/|AA/A/ AA/A/|!
d2Af|a/g/e a/g/e|a/g/e a/g/e/f/|d2Ag|!
d2Af|a/g/e a/g/e|a/g/e a/g/e|fd/f/ a>g|!
fd/f/ a>g|fd/d/ df|e2Hzd|d2Af|d2Af|a/g/e a/g/e|!
a/g/e a/g/e/f/|d2Af|d2Af|a/g/e a/g/e|!
a/g/e a/g/e|fd/f/ a>g|fd/f/ a>g|fD/D/ DA/A/|!
AF/F/ Fd/d/|dA/A/ Af/f/|f2 e/d/c/B/|AF/F/ Fd/d/|!
dA/A/ Af/f/|fd/d/ df|a2 g/f/g/e/|dd/d/ df|dd/d/ df|dd d2|]

